X:15574
T:Sleep Soond Ida Moarnin'
M:4/4
L:1/8
Q:1/4=220
C:Trad Shetland
S:From the playing of Tony and Finbar Murphy
R:Reel
O:Shetland
B:Fiddler's Fake Book
K:A Dor
"Am"e a2 ^g a2 ef|"G"gedB "Em"GABG|"Am"e a2 ^g a2 ef|[1 "G"gedB "Am"A2 B
G:|[2 "G"gedB "Am"A3 B||!
"Am"cAeA cAeA|"G"BcdB G3 B|"Am"cAeA cAeA|"G"BAGB "Am"A3 B||!
"Am"cAeA cAeA|"G"BcdB G3 B|"Am"ABcd efga|"G"gedB "Am"A2 z2|]!
